src/assets/images/Logo.svg

<svg width="100" height="73" viewBox="0 0 100 73" fill="none" xmlns="http://www.w3.org/2000/svg">
<g filter="url(#filter0_d_43_50)">
<path d="M34.0729 0C35.8474 0 58.3231 1.30548 58.3231 1.30548C61.3906 1.62187 63.4412 1.92479 61.4283 5.07688C56.6966 11.3142 54.3307 14.0702 49.1554 20.5976C57.3188 19.8244 63.9415 23.0635 67.4903 28.8657C73.3364 38.4237 71.6306 49.1732 65.1244 56.1358C58.511 63.2132 50.1899 64.9841 41.0227 64.4038C30.9217 63.7645 23.8193 55.912 24.3137 44.9667C24.4317 42.3557 26.6796 40.0348 29.4891 39.7447C30.2921 39.6618 31.1131 39.7028 31.7772 39.952C33.3878 40.5564 31.8859 42.3156 30.6465 43.5086C29.4891 44.6227 29.4891 46.1002 29.4891 47.5776C29.4891 52.7573 33.2699 56.2128 38.3611 57.5863C44.2752 59.1819 55.1829 57.87 60.3932 50.6237C64.6424 44.7142 66.1298 38.3904 62.3155 32.2019C60.2559 28.8603 57.7496 26.7383 54.5145 25.6597C50.3512 24.2717 45.8729 25.5888 41.762 27.125C38.0653 28.5756 36.7345 24.8042 38.9525 22.3383L51.3734 8.84828C53.846 6.21647 53.2068 5.67883 50.0426 5.65709H35.9952C34.3687 5.65709 32.0515 5.29968 31.7071 3.48129C31.4028 1.87483 32.2985 0 34.0729 0Z" fill="#F4F4F9"/>
</g>
<g filter="url(#filter1_f_43_50)">
<path d="M34.5091 20.1897C19.1778 27.5441 3.16549 41.8014 10.5614 48.2065C16.9337 53.7251 48.9503 43.3414 64.957 34.9328C97.7768 17.692 90.7533 12.4868 88.3379 11.1611C84.5311 9.07174 72.7967 8.63815 60.8326 11.2413L58.5691 13.9128C58.5691 13.9128 79.9423 10.2218 85.4522 12.1118C94.0882 15.0741 79.0596 26.1938 64.3425 33.1954C45.2614 42.273 12.8323 50.0548 11.8226 45.5939C9.55641 35.5807 31.2975 23.9301 34.5091 22.2448C39.2714 19.7458 47.1689 16.8478 47.1689 16.8478L49.7045 14.2003C44.4789 15.9455 40.0218 17.5453 34.5091 20.1897Z" fill="#6339F0"/>
</g>
<g filter="url(#filter2_f_43_50)">
<path d="M34.5091 16.9986C19.1778 24.3529 3.16549 38.6103 10.5614 45.0154C16.9337 50.534 48.9503 40.1502 64.957 31.7416C97.7768 14.5008 90.7533 9.29568 88.3379 7.96994C84.5311 5.88058 72.7967 5.44699 60.8326 8.05016L58.5691 10.7216C58.5691 10.7216 79.9423 7.03064 85.4522 8.92064C94.0882 11.883 79.0596 23.0026 64.3425 30.0042C45.2614 39.0819 12.8323 46.8637 11.8226 42.4027C9.55641 32.3895 31.2975 20.7389 34.5091 19.0536C39.2714 16.5546 47.1689 13.6566 47.1689 13.6566L49.7045 11.0091C44.4789 12.7544 40.0218 14.3542 34.5091 16.9986Z" fill="#00D1FF"/>
</g>
<path d="M35.5705 15.9824C20.8204 23.3174 4.26489 37.8261 11.3804 44.2143C17.5111 49.7184 50.7132 38.5052 66.0114 30.7514C97.5071 14.7881 88.5318 8.58865 86.2079 7.26641C82.5455 5.18254 70.3841 5.90839 58.8736 8.50471L56.6959 11.1691C56.6959 11.1691 78.1307 6.32958 83.4317 8.2146C91.7403 11.1691 78.9876 21.8826 64.8285 28.8657C46.4709 37.9195 14.0236 48.1578 12.5938 41.6086C10.4135 31.6217 32.4807 19.7129 35.5705 18.032C40.1522 15.5396 47.7503 12.6492 47.7503 12.6492L50.1897 10.0087C45.1623 11.7494 40.8742 13.3449 35.5705 15.9824Z" fill="#0B0B0C"/>
<circle cx="32.0891" cy="12.1845" r="2.1968" fill="#F4F4F9"/>
<circle cx="32.0891" cy="22.3383" r="2.1968" fill="#F4F4F9"/>
<circle cx="32.0891" cy="32.492" r="2.1968" fill="#F4F4F9"/>
<defs>
<filter id="filter0_d_43_50" x="24.2894" y="0" width="58.7743" height="72.5062" filterUnits="userSpaceOnUse" color-interpolation-filters="sRGB">
<feFlood flood-opacity="0" result="BackgroundImageFix"/>
<feColorMatrix in="SourceAlpha" type="matrix" values="0 0 0 0 0 0 0 0 0 0 0 0 0 0 0 0 0 0 127 0" result="hardAlpha"/>
<feOffset dx="8" dy="4"/>
<feGaussianBlur stdDeviation="2"/>
<feComposite in2="hardAlpha" operator="out"/>
<feColorMatrix type="matrix" values="0 0 0 0 0 0 0 0 0 0 0 0 0 0 0 0 0 0 0.25 0"/>
<feBlend mode="normal" in2="BackgroundImageFix" result="effect1_dropShadow_43_50"/>
<feBlend mode="normal" in="SourceGraphic" in2="effect1_dropShadow_43_50" result="shape"/>
</filter>
<filter id="filter1_f_43_50" x="-4.86374e-05" y="0.739026" width="99.3644" height="57.7144" filterUnits="userSpaceOnUse" color-interpolation-filters="sRGB">
<feFlood flood-opacity="0" result="BackgroundImageFix"/>
<feBlend mode="normal" in="SourceGraphic" in2="BackgroundImageFix" result="shape"/>
<feGaussianBlur stdDeviation="4.35" result="effect1_foregroundBlur_43_50"/>
</filter>
<filter id="filter2_f_43_50" x="7.39995" y="4.94786" width="84.5644" height="42.9144" filterUnits="userSpaceOnUse" color-interpolation-filters="sRGB">
<feFlood flood-opacity="0" result="BackgroundImageFix"/>
<feBlend mode="normal" in="SourceGraphic" in2="BackgroundImageFix" result="shape"/>
<feGaussianBlur stdDeviation="0.65" result="effect1_foregroundBlur_43_50"/>
</filter>
</defs>
</svg>

<svg xmlns="http://www.w3.org/2000/svg" width="100" height="73" fill="none"><g filter="url(#a)"><path fill="#f4f4f9" d="M34.073 0c1.774 0 24.25 1.305 24.25 1.305 3.068.317 5.118.62 3.105 3.772-4.731 6.237-7.097 8.993-12.273 15.52 8.164-.773 14.786 2.467 18.335 8.269 5.846 9.558 4.14 20.307-2.366 27.27-6.613 7.077-14.934 8.848-24.101 8.268-10.101-.64-17.204-8.492-16.71-19.437.119-2.611 2.367-4.932 5.176-5.222.803-.083 1.624-.042 2.288.207 1.61.604.109 2.364-1.13 3.557-1.158 1.114-1.158 2.591-1.158 4.069 0 5.18 3.78 8.635 8.872 10.008 5.914 1.596 16.822.284 22.032-6.962 4.25-5.91 5.737-12.234 1.922-18.422-2.06-3.342-4.565-5.464-7.8-6.542-4.164-1.388-8.642-.071-12.753 1.465-3.697 1.45-5.028-2.32-2.81-4.787l12.421-13.49c2.473-2.632 1.834-3.17-1.33-3.19H35.995c-1.626 0-3.943-.358-4.288-2.177C31.403 1.875 32.298 0 34.073 0"/></g><g filter="url(#b)"><path fill="#6339f0" d="M34.51 20.19C19.177 27.544 3.164 41.8 10.56 48.206c6.373 5.52 38.39-4.865 54.396-13.273 32.82-17.241 25.796-22.446 23.38-23.772-3.806-2.09-15.54-2.523-27.504.08l-2.264 2.672s21.373-3.691 26.883-1.801c8.636 2.962-6.392 14.082-21.11 21.083-19.08 9.078-51.51 16.86-52.52 12.399C9.557 35.58 31.299 23.93 34.51 22.244c4.762-2.498 12.66-5.396 12.66-5.396l2.536-2.648c-5.226 1.745-9.683 3.345-15.196 5.99"/></g><g filter="url(#c)"><path fill="#00d1ff" d="M34.51 16.999C19.177 24.353 3.164 38.61 10.56 45.015c6.373 5.519 38.39-4.865 54.396-13.273C97.777 14.5 90.753 9.296 88.337 7.97c-3.806-2.09-15.54-2.523-27.504.08l-2.264 2.672S79.942 7.03 85.452 8.92c8.636 2.962-6.392 14.082-21.11 21.083-19.08 9.078-51.51 16.86-52.52 12.399C9.557 32.39 31.299 20.739 34.51 19.053c4.762-2.498 12.66-5.396 12.66-5.396l2.536-2.648c-5.226 1.745-9.683 3.345-15.196 5.99"/></g><path fill="#0b0b0c" d="M35.57 15.982C20.82 23.317 4.266 37.826 11.38 44.214c6.131 5.504 39.333-5.709 54.631-13.463C97.507 14.788 88.531 8.59 86.208 7.266c-3.662-2.083-15.824-1.358-27.334 1.239l-2.178 2.664S78.13 6.33 83.432 8.215c8.308 2.954-4.444 13.668-18.603 20.65C46.47 37.92 14.024 48.159 12.594 41.61c-2.18-9.987 19.887-21.896 22.977-23.577 4.581-2.492 12.18-5.383 12.18-5.383l2.439-2.64c-5.028 1.74-9.316 3.336-14.62 5.973"/><circle cx="32.089" cy="12.184" r="2.197" fill="#f4f4f9"/><circle cx="32.089" cy="22.338" r="2.197" fill="#f4f4f9"/><circle cx="32.089" cy="32.492" r="2.197" fill="#f4f4f9"/><defs><filter id="a" width="58.774" height="72.506" x="24.289" y="0" color-interpolation-filters="sRGB" filterUnits="userSpaceOnUse"><feFlood flood-opacity="0" result="BackgroundImageFix"/><feColorMatrix in="SourceAlpha" result="hardAlpha" values="0 0 0 0 0 0 0 0 0 0 0 0 0 0 0 0 0 0 127 0"/><feOffset dx="8" dy="4"/><feGaussianBlur stdDeviation="2"/><feComposite in2="hardAlpha" operator="out"/><feColorMatrix values="0 0 0 0 0 0 0 0 0 0 0 0 0 0 0 0 0 0 0.25 0"/><feBlend in2="BackgroundImageFix" result="effect1_dropShadow_43_50"/><feBlend in="SourceGraphic" in2="effect1_dropShadow_43_50" result="shape"/></filter><filter id="b" width="99.364" height="57.714" x="0" y=".739" color-interpolation-filters="sRGB" filterUnits="userSpaceOnUse"><feFlood flood-opacity="0" result="BackgroundImageFix"/><feBlend in="SourceGraphic" in2="BackgroundImageFix" result="shape"/><feGaussianBlur result="effect1_foregroundBlur_43_50" stdDeviation="4.35"/></filter><filter id="c" width="84.564" height="42.914" x="7.4" y="4.948" color-interpolation-filters="sRGB" filterUnits="userSpaceOnUse"><feFlood flood-opacity="0" result="BackgroundImageFix"/><feBlend in="SourceGraphic" in2="BackgroundImageFix" result="shape"/><feGaussianBlur result="effect1_foregroundBlur_43_50" stdDeviation=".65"/></filter></defs></svg>
